libs/icons/src/svg/subscriptions.svg

<svg width="16" height="16" viewBox="0 0 16 16" fill="none" xmlns="http://www.w3.org/2000/svg">
<path d="M10.4001 9.24867C10.4083 9.48089 10.3629 9.71188 10.2676 9.92377C10.1722 10.1357 10.0294 10.3228 9.85014 10.4707C9.40528 10.8078 8.86787 11.0007 8.31015 11.0233V12.0033H7.65548V11.042C6.95274 11.0419 6.25702 10.9021 5.60882 10.6307V9.36867C5.92975 9.52151 6.26462 9.64318 6.60882 9.732C6.9502 9.82876 7.30037 9.89129 7.65415 9.91867V8.436L7.33348 8.312C6.83186 8.14443 6.37372 7.86754 5.99215 7.50134C5.72757 7.20375 5.58726 6.81599 5.60015 6.41801C5.59609 6.19893 5.643 5.98191 5.73718 5.78407C5.83136 5.58624 5.97022 5.41299 6.14282 5.27801C6.58244 4.95154 7.1092 4.76311 7.65615 4.73667V4.00334H8.31081V4.71601C8.99263 4.73671 9.6644 4.88599 10.2908 5.15601L9.84148 6.27467C9.35241 6.07285 8.83529 5.94717 8.30815 5.90201V7.31267C8.77022 7.47496 9.21488 7.68311 9.63548 7.934C9.86965 8.08041 10.0673 8.27833 10.2135 8.51267C10.3409 8.73667 10.4054 8.99099 10.4001 9.24867ZM7.03882 6.41801C7.03683 6.48288 7.04885 6.54743 7.07404 6.60725C7.09923 6.66707 7.13702 6.72076 7.18482 6.76467C7.32587 6.88271 7.48502 6.97725 7.65615 7.04467V5.92067C7.24504 5.98156 7.03926 6.14734 7.03882 6.41801ZM8.96148 9.32067C8.96181 9.25549 8.94735 9.19108 8.91917 9.1323C8.89099 9.07352 8.84984 9.0219 8.79881 8.98134C8.64976 8.86412 8.48562 8.76748 8.31081 8.694V9.88467C8.74415 9.81133 8.96104 9.62333 8.96148 9.32067Z" fill="#202327"/>
<path fill-rule="evenodd" clip-rule="evenodd" d="M2.06062 0.0956888C2.42593 0.141629 2.68484 0.475014 2.6389 0.840326L2.27795 3.7106L5.10716 2.92227C5.46184 2.82345 5.82948 3.03086 5.92831 3.38553C6.02713 3.74021 5.81972 4.10785 5.46504 4.20668L1.67038 5.26401C1.45543 5.3239 1.22476 5.27228 1.05584 5.12648C0.886917 4.98067 0.802144 4.76003 0.829986 4.53863L1.31599 0.673964C1.36192 0.308652 1.69531 0.0497491 2.06062 0.0956888Z" fill="#202327"/>
<path fill-rule="evenodd" clip-rule="evenodd" d="M10.3422 1.75832C8.81598 1.18561 7.13284 1.19193 5.61099 1.77608C4.08914 2.36023 2.83405 3.48173 2.08303 4.92853C1.9134 5.25531 1.51097 5.38271 1.18419 5.21307C0.8574 5.04344 0.730003 4.64102 0.899635 4.31423C1.80087 2.57807 3.30697 1.23228 5.13319 0.531301C6.95941 -0.169679 8.97918 -0.177264 10.8106 0.509981C12.642 1.19723 14.1582 2.53167 15.0725 4.26101C15.9867 5.99035 16.2357 7.99473 15.7723 9.89518C15.3088 11.7956 14.1652 13.4604 12.5575 14.5748C10.9499 15.6892 8.98963 16.176 7.04741 15.9431C5.1052 15.7101 3.31562 14.7737 2.01705 13.3108C0.718476 11.8478 0.000902724 9.95982 7.25417e-08 8.00368C-0.00016984 7.63549 0.298169 7.33688 0.666358 7.33671C1.03455 7.33654 1.33316 7.63488 1.33333 8.00307C1.33408 9.63318 1.93206 11.2065 3.01421 12.4256C4.09635 13.6447 5.58766 14.4251 7.20617 14.6192C8.82469 14.8133 10.4582 14.4077 11.7979 13.479C13.1377 12.5504 14.0907 11.163 14.4769 9.57932C14.863 7.99561 14.6556 6.32529 13.8937 4.88417C13.1318 3.44306 11.8684 2.33102 10.3422 1.75832Z" fill="#202327"/>
</svg>

<svg xmlns="http://www.w3.org/2000/svg" viewBox="0 0 16 16" class="sageicon"><path d="M10.4 9.249a1.516 1.516 0 0 1-.55 1.222c-.445.337-.982.53-1.54.552v.98h-.655v-.961c-.702 0-1.398-.14-2.046-.411V9.369c.32.153.656.274 1 .363.341.097.691.16 1.045.187V8.436l-.32-.124a3.571 3.571 0 0 1-1.342-.81A1.555 1.555 0 0 1 5.6 6.417a1.414 1.414 0 0 1 .543-1.14c.44-.326.966-.515 1.513-.541v-.734h.655v.713c.682.02 1.353.17 1.98.44l-.45 1.119a5.178 5.178 0 0 0-1.533-.373v1.41c.462.163.907.371 1.327.622.235.146.432.344.579.579.127.224.191.478.186.736ZM7.04 6.418a.452.452 0 0 0 .146.347c.14.118.3.212.471.28V5.92c-.411.06-.617.226-.617.497ZM8.96 9.321a.43.43 0 0 0-.162-.34 2.116 2.116 0 0 0-.488-.287v1.19c.433-.073.65-.26.65-.563Z"/><path fill-rule="evenodd" d="M2.06.096c.366.046.625.379.579.744l-.361 2.87 2.83-.788a.667.667 0 0 1 .357 1.285L1.67 5.264a.667.667 0 0 1-.84-.725L1.316.674a.667.667 0 0 1 .745-.578Z"/><path fill-rule="evenodd" d="M10.342 1.758a6.667 6.667 0 0 0-8.259 3.17A.667.667 0 1 1 .9 4.315a8 8 0 1 1-.9 3.69.667.667 0 1 1 1.333 0 6.667 6.667 0 1 0 9.01-6.246Z"/></svg>
